X:1
T:Tis Past - The Spell is Broken
T:Tis Past - The Spell is Broken
T:(Anonymous)
T:I can never love another, For the heart which once was thine, Could not fold again an idol Where thou hast held thy shryne. Yet, think not I reproach thee, For the ruin thou hast wrought,
T:by IMSLP
T:by IMSLP
C:(Anonymous)
Z:by IMSLP
%%score 1 { ( 2 4 ) | 3 }
L:1/8
Q:1/4=60
M:2/4
K:Eb
V:1 treble nm="Voice"
V:2 treble nm="Piano"
V:4 treble 
V:3 bass 
V:1
 z | z4 | z4 | z4 | z4 | z4 | z4 | z4 | z2 z |] (B,/E/) | G3/2 G/ G3/2 F/ | F/ E3/2 e3/2 c/ | %12
w: |||||||||'Tis *|past the spell is|bro\- ken And my|
 B G G (F/E/) | F2 z E/ F/ | G3/2 F/ G B | c/ e3/2 d3/2 c/ | B3/2 G/ G3/2 F/ | E2 z B | %18
w: spi\- rit now is *|free, There is|left not one lone|tok\- en Of the|love it bore to|thee. I|
 e3/2 d/{/d} c3/2 B/ | (cd) e3/2 c/ | B3/2 G/ G (F/E/) | F2 z E/F/ | G B A3/2 F/ | F/ E3/2 B, B, | %24
w: fear not this will|grieve * thee, For|thou hast ne\- ver *|lov'd No I|feel thou hast de\-|ceiv'd me, This thy|
 E/ G3/2 A3/2 G/ |{G} F2 z B/ B/ |!mf!!<(! e3/2 e/ c3/2!f! A/!<)! | G/ B3/2 z c/ c/ | %28
w: bro\- ken vows have|prov'd No I|feel Thou hast decei\-|v'd me, This thy|
"^ritard"[Q:1/4=50] B/ G3/2 G3/2 F/ |[Q:1/4=60] E2 z2 | z4 | z4 | z4 | z2 z!D.C.! |] %34
w: bro\- ken vows have|prov'd.|||||
V:2
"^Con espressione" (e/f/) | g>g g>f | fe{/e} e'>c' | b>g g(f/e/) | f2 z (e/f/) | %5
 [eg]>[df] [eg][gb] | [ac'][c'e'] [bd'][ac'] | [gb]>g g>f | [Ge]2- [Ge] |] z | %10
 (B,/G/E/G/) (A,/F/D/F/) | (G,/E/B,/E/) (C/A/E/A/) | (B,/G/E/G/) (B,/G/E/G/) | z/ (B,/D/F/) B z | %14
 (B,/G/E/G/) (B,/G/E/G/) | (C/A/E/A/) (C/A/E/A/) | (B,/G/E/G/) (A,/F/D/F/) | (G,/E/B,/E/) G, z | %18
 z/ (B,/E/B/) z/ (C/E/A/) | z/ (C/E/A/) z/ (C/E/A/) | z/ (B,/E/G/) z/ (B,/E/G/) | %21
 z/ (B,/D/F/) B z | (B,/G/E/G/) (A,/F/D/F/) | (G,/E/B,/E/) (G,/E/B,/E/) | (B,/G/E/G/) (B,/G/E/G/) | %25
 z/ (B,/D/G/) z/ (D/F/B/) |!<(! z/!mf! (B,/E/B/) z/ (C/E/A/)!<)! |!f! [B,EG]2 [E^Fc]2 | %28
 [EGB]2 G>F | [G,B,E]2 e>f | [eg]>[df] [eg][gb] | [ac'][c'e'] [bd'][ac'] | [gb]>g g>f | %33
 [Ge]2 [Ge] |] %34
V:3
 z | (E,/G,/B,/E/) (F,/A,/B,/D/) | (E,/G,/B,/E/) (A,/E/C/E/) | (E,/E/B,/E/) (E,/E/B,/E/) | %4
 z/ (B,,/D,/F,/ B,) z | (E,/B,/G,/B,/) (E,/B,/G,/B,/) | (A,/E/C/E/) (A,/E/C/E/) | %7
 (E,/B,/F,/B,/) (B,,/A,/F,/A,/) | (E,/B,/F,/B,/) E, |] z | [E,,E,]2 [B,,,B,,]2 | %11
 [E,,E,]2 [A,,A,]2 | [E,,E,]2 [E,,E,]2 | [B,,,B,,]2- [B,,,B,,] z | [E,,E,]2 [E,,E,]2 | %15
 [A,,A,]2 [A,,A,]2 | [E,,E,]2 [B,,,A,,]2 | [E,,E,]2- [E,,E,] z | [G,,G,]2 [A,,A,]2 | %19
 [A,,A,]2 [A,,A,]2 | [E,,E,]2 [E,,E,]2 | [B,,,B,,]2 [B,,,B,,]2 | [E,,E,]2 [B,,,B,,]2 | %23
 [E,,E,]2 [E,,E,]2 | [E,,E,]2 [E,,E,]2 | !>![B,,,B,,]2 !>![A,,,A,,]2 | [G,,,G,,]2 [A,,,A,,]2 | %27
 [E,,E,]2 [=A,,=A,]2 |"^ritard" [B,,B,]2 [B,,,B,,]2 | [E,,E,]2 z2 | (E,/B,/G,/B,/) (E,/B,/G,/B,/) | %31
 (A,/E/C/E/) (A,/E/C/E/) | (E,/B,/G,/B,/) (B,,/A,/F,/A,/) | (E,/B,/G,/B,/) E, |] %34
V:4
 x | x4 | x4 | x4 | x4 | x4 | x4 | x2 !>![Ad]2 | x3 |] x | x4 | x4 | x4 | x4 | x4 | x4 | x4 | x4 | %18
 x4 | x4 | x4 | x4 | x4 | x4 | x4 | x4 | x4 | x4 | x2 [A,D]2 | x4 | x4 | x4 | x4 | x3 |] %34

